; generated by Slic3r 1.2.9 on 2015-11-15 at 10:57:46

; external perimeters extrusion width = 0.35mm
; perimeters extrusion width = 0.52mm
; infill extrusion width = 0.52mm
; solid infill extrusion width = 0.52mm
; top infill extrusion width = 0.52mm

M104 S210 ; set temperature
G28 X0 Y0
G91
G1 Z10 F200
G1 X50 Y20 F6000
G90
G92 Z100
G30
G92 Z5
G28 X0 Y0
G29
M109 S210 ; wait for temperature to be reached
G21 ; set units to millimeters
G90 ; use absolute coordinates
M83 ; use relative distances for extrusion
M106 S255
G1 E-1.00000 F1800.00000
G1 Z0.350 F5100.000
G1 X36.989 Y74.141 F5100.000
G1 E1.00000 F1800.00000
G1 X39.064 Y73.164 E0.19845 F540.000
G1 X40.806 Y72.931 E0.15206
G1 X149.194 Y72.931 E9.37900
G1 X151.453 Y73.328 E0.19845
G1 X153.441 Y74.471 E0.19845 F540.000
G1 X154.695 Y75.863 E0.16212
G1 X180.501 Y114.308 E4.00659
G1 X181.430 Y116.405 E0.19845
G1 X181.625 Y118.000 E0.13909
G1 X181.625 Y130.000 E1.03837
G1 X181.228 Y132.259 E0.19845
G1 X180.085 Y134.247 E0.19845
G1 X178.332 Y135.726 E0.19845
G1 X176.180 Y136.519 E0.19845
G1 X175.000 Y136.625 E0.10250
G1 X14.000 Y136.625 E13.93150
G1 X11.741 Y136.228 E0.19845
G1 X9.753 Y135.085 E0.19845
G1 X8.274 Y133.332 E0.19845
G1 X7.481 Y131.180 E0.19845
G1 X7.375 Y130.000 E0.10250
G1 X7.375 Y118.000 E1.03837
G1 X7.772 Y115.741 E0.19845
G1 X8.566 Y114.211 E0.14916
G1 X35.371 Y75.766 E4.05545
G1 X36.952 Y74.178 E0.19391
G1 E-1.00000 F1800.00000
G1 X41.165 Y87.184 F5100.000
G1 E1.00000 F1800.00000
G1 X45.139 Y118.975 E2.77233 F900.000
G1 X90.861 Y118.975 E3.95631
G1 X94.835 Y87.184 E2.77233
G1 X95.165 Y87.184 E0.02864
G1 X99.139 Y118.975 E2.77233
G1 X144.861 Y118.975 E3.95631
G1 X148.835 Y87.184 E2.77232
G1 X149.165 Y87.184 E0.02864
G1 X153.139 Y118.975 E2.77232
G1 X174.025 Y118.975 E1.80726
G1 X174.025 Y129.025 E0.86966
G1 X14.975 Y129.025 E13.76278
G1 X14.975 Y118.975 E0.86966
G1 X36.861 Y118.975 E1.89380
G1 X40.835 Y87.184 E2.77233
G1 X41.113 Y87.184 E0.02410
G1 X41.785 Y87.100 F5100.000
G1 X45.691 Y118.350 E2.72516 F630.000
G1 X90.309 Y118.350 E3.86084
G1 X94.835 Y82.146 E3.15717
G1 X95.165 Y82.146 E0.02864
G1 X99.691 Y118.350 E3.15717
G1 X144.309 Y118.350 E3.86084
G1 X148.835 Y82.146 E3.15717
G1 X149.165 Y82.146 E0.02864
G1 X153.691 Y118.350 E3.15717
G1 X174.650 Y118.350 E1.81360
G1 X174.650 Y129.650 E0.97780
G1 X14.350 Y129.650 E13.87093
G1 X14.350 Y118.350 E0.97780
G1 X36.309 Y118.350 E1.90013
G1 X40.835 Y82.146 E3.15717
G1 X41.165 Y82.146 E0.02864
G1 X41.778 Y87.048 E0.42747 F630.000
G1 X41.506 Y87.311 F5100.000
G1 E-1.00000 F1800.00000
G1 X41.000 Y81.796 F5100.000
G1 E1.00000 F1800.00000
G1 X41.000 Y79.556 E0.19384 F630.000
G1 E-1.00000 F1800.00000
G1 X95.000 Y79.556 F5100.000
G1 E1.00000 F1800.00000
G1 X95.000 Y81.796 E0.19385 F630.000
G1 E-1.00000 F1800.00000
G1 X149.000 Y81.796 F5100.000
G1 E1.00000 F1800.00000
G1 X149.000 Y79.556 E0.19385 F630.000
G1 E-1.00000 F1800.00000
G1 X149.000 Y83.489 F5100.000
G1 E1.00000 F1800.00000
G1 X149.000 Y84.824 E0.11550 F360.000
G1 X149.000 Y86.871 E0.37562 F360.000
G1 X149.000 Y88.527 F5100.000
G1 X149.000 Y89.862 E0.11550 F360.000
G1 X149.000 Y91.909 E0.37562 F360.000
G1 X149.360 Y92.690 F5100.000
G1 X149.052 Y92.382 E0.03786 F1080.000
G1 X148.592 Y92.809 E0.05455
G1 X149.487 Y93.704 E0.10998
G1 X148.493 Y93.597 E0.08683
G1 X149.614 Y94.718 E0.13767
G1 X149.740 Y95.732 E0.08878
G1 X148.395 Y94.386 E0.16536
G1 X148.296 Y95.175 E0.06905
G1 X149.867 Y96.746 E0.19304
G1 X149.994 Y97.760 E0.08878
G1 X148.197 Y95.963 E0.22073
G1 X148.099 Y96.752 E0.06905
G1 X150.121 Y98.774 E0.24842
G1 X150.247 Y99.788 E0.08878
G1 X148.000 Y97.541 E0.27610
G1 X147.902 Y98.330 E0.06905
G1 X150.374 Y100.802 E0.30379
G1 X150.501 Y101.816 E0.08878
G1 X147.803 Y99.118 E0.33148
G1 X147.705 Y99.907 E0.06905
G1 X150.628 Y102.830 E0.35916
G1 X150.754 Y103.844 E0.08878
G1 X147.606 Y100.696 E0.38685
G1 X147.507 Y101.484 E0.06905
G1 X150.881 Y104.858 E0.41454
G1 X151.008 Y105.872 E0.08878
G1 X147.409 Y102.273 E0.44222
G1 X147.310 Y103.062 E0.06905
G1 X151.135 Y106.886 E0.46991
G1 X151.262 Y107.900 E0.08878
G1 X147.212 Y103.850 E0.49760
G1 X147.113 Y104.639 E0.06905
G1 X151.388 Y108.914 E0.52529
G1 X151.515 Y109.928 E0.08878
G1 X147.014 Y105.428 E0.55297
G1 X146.916 Y106.217 E0.06905
G1 X151.642 Y110.942 E0.58066
G1 X151.769 Y111.957 E0.08878
G1 X146.817 Y107.005 E0.60835
G1 X146.719 Y107.794 E0.06905
G1 X151.895 Y112.971 E0.63603
G1 X152.022 Y113.985 E0.08878
G1 X146.620 Y108.583 E0.66372
G1 X146.521 Y109.371 E0.06905
G1 X152.149 Y114.999 E0.69141
G1 X152.276 Y116.013 E0.08878
G1 X146.423 Y110.160 E0.71909
G1 X146.324 Y110.949 E0.06905
G1 X152.402 Y117.027 E0.74678
G1 X152.529 Y118.041 E0.08878
G1 X146.226 Y111.737 E0.77447
G1 X146.127 Y112.526 E0.06905
G1 X152.656 Y119.055 E0.80215
G1 X153.048 Y119.447 F5100.000
G1 X162.154 Y128.553 E1.11878 F1080.000
G1 X163.041 Y128.553 E0.07709
G1 X153.935 Y119.447 E1.11878
G1 X154.823 Y119.447 E0.07709
G1 X163.928 Y128.553 E1.11878
G1 X164.816 Y128.553 E0.07709
G1 X155.710 Y119.447 E1.11878
G1 X156.597 Y119.447 E0.07709
G1 X165.703 Y128.553 E1.11878
G1 X166.590 Y128.553 E0.07709
G1 X157.485 Y119.447 E1.11878
G1 X158.372 Y119.447 E0.07709
G1 X167.478 Y128.553 E1.11878
G1 X168.365 Y128.553 E0.07709
G1 X159.259 Y119.447 E1.11878
G1 X160.146 Y119.447 E0.07709
G1 X169.252 Y128.553 E1.11878
G1 X170.139 Y128.553 E0.07709
G1 X161.034 Y119.447 E1.11878
G1 X161.921 Y119.447 E0.07709
G1 X171.027 Y128.553 E1.11878
G1 X171.914 Y128.553 E0.07709
G1 X162.808 Y119.447 E1.11878
G1 X163.696 Y119.447 E0.07709
G1 X172.801 Y128.553 E1.11878
G1 X173.553 Y128.417 E0.06635
G1 X164.583 Y119.447 E1.10210
G1 X165.470 Y119.447 E0.07709
G1 X173.553 Y127.530 E0.99308
G1 X173.553 Y126.643 E0.07709
G1 X166.357 Y119.447 E0.88407
G1 X167.245 Y119.447 E0.07709
G1 X173.553 Y125.755 E0.77505
G1 X173.553 Y124.868 E0.07709
G1 X168.132 Y119.447 E0.66603
G1 X169.019 Y119.447 E0.07709
G1 X173.553 Y123.981 E0.55702
G1 X173.553 Y123.093 E0.07709
G1 X169.907 Y119.447 E0.44800
G1 X170.794 Y119.447 E0.07709
G1 X173.553 Y122.206 E0.33898
G1 X173.553 Y121.319 E0.07709
G1 X171.681 Y119.447 E0.22997
G1 X172.568 Y119.447 E0.07709
G1 X173.553 Y120.432 E0.12095
G1 X161.267 Y128.553 F5100.000
G1 X146.029 Y113.315 E1.87224 F1080.000
G1 X145.930 Y114.103 E0.06905
G1 X160.379 Y128.553 E1.77533
G1 X159.492 Y128.553 E0.07709
G1 X145.831 Y114.892 E1.67843
G1 X145.733 Y115.681 E0.06905
G1 X158.605 Y128.553 E1.58153
G1 X157.717 Y128.553 E0.07709
G1 X145.634 Y116.470 E1.48462
G1 X145.536 Y117.258 E0.06905
G1 X156.830 Y128.553 E1.38772
G1 X155.943 Y128.553 E0.07709
G1 X145.437 Y118.047 E1.29081
G1 X145.338 Y118.836 E0.06905
G1 X155.056 Y128.553 E1.19391
G1 X154.168 Y128.553 E0.07709
G1 X145.063 Y119.447 E1.11878
G1 X144.175 Y119.447 E0.07709
G1 X153.281 Y128.553 E1.11878
G1 X152.394 Y128.553 E0.07709
G1 X143.288 Y119.447 E1.11878
G1 X142.401 Y119.447 E0.07709
G1 X151.506 Y128.553 E1.11878
G1 X150.619 Y128.553 E0.07709
G1 X141.514 Y119.447 E1.11878
G1 X140.626 Y119.447 E0.07709
G1 X149.732 Y128.553 E1.11878
G1 X148.845 Y128.553 E0.07709
G1 X139.739 Y119.447 E1.11878
G1 X138.852 Y119.447 E0.07709
G1 X147.957 Y128.553 E1.11878
G1 X147.070 Y128.553 E0.07709
G1 X137.964 Y119.447 E1.11878
G1 X137.077 Y119.447 E0.07709
G1 X146.183 Y128.553 E1.11878
G1 X145.296 Y128.553 E0.07709
G1 X136.190 Y119.447 E1.11878
G1 X135.303 Y119.447 E0.07709
G1 X144.408 Y128.553 E1.11878
G1 X143.521 Y128.553 E0.07709
G1 X134.415 Y119.447 E1.11878
G1 X133.528 Y119.447 E0.07709
G1 X142.634 Y128.553 E1.11878
G1 X141.746 Y128.553 E0.07709
G1 X132.641 Y119.447 E1.11878
G1 X131.753 Y119.447 E0.07709
G1 X140.859 Y128.553 E1.11878
G1 X139.972 Y128.553 E0.07709
G1 X130.866 Y119.447 E1.11878
G1 X129.979 Y119.447 E0.07709
G1 X139.085 Y128.553 E1.11878
G1 X138.197 Y128.553 E0.07709
G1 X129.092 Y119.447 E1.11878
G1 X128.204 Y119.447 E0.07709
G1 X137.310 Y128.553 E1.11878
G1 X136.423 Y128.553 E0.07709
G1 X127.317 Y119.447 E1.11878
G1 X126.430 Y119.447 E0.07709
G1 X135.535 Y128.553 E1.11878
G1 X134.648 Y128.553 E0.07709
G1 X125.542 Y119.447 E1.11878
G1 X124.655 Y119.447 E0.07709
G1 X133.761 Y128.553 E1.11878
G1 X132.874 Y128.553 E0.07709
G1 X123.768 Y119.447 E1.11878
G1 X122.881 Y119.447 E0.07709
G1 X131.986 Y128.553 E1.11878
G1 X131.099 Y128.553 E0.07709
G1 X121.993 Y119.447 E1.11878
G1 X121.106 Y119.447 E0.07709
G1 X130.212 Y128.553 E1.11878
G1 X129.324 Y128.553 E0.07709
G1 X120.219 Y119.447 E1.11878
G1 X119.331 Y119.447 E0.07709
G1 X128.437 Y128.553 E1.11878
G1 X127.550 Y128.553 E0.07709
G1 X118.444 Y119.447 E1.11878
G1 X117.557 Y119.447 E0.07709
G1 X126.663 Y128.553 E1.11878
G1 X125.775 Y128.553 E0.07709
G1 X116.670 Y119.447 E1.11878
G1 X115.782 Y119.447 E0.07709
G1 X124.888 Y128.553 E1.11878
G1 X124.001 Y128.553 E0.07709
G1 X114.895 Y119.447 E1.11878
G1 X114.008 Y119.447 E0.07709
G1 X123.113 Y128.553 E1.11878
G1 X122.226 Y128.553 E0.07709
G1 X113.120 Y119.447 E1.11878
G1 X112.233 Y119.447 E0.07709
G1 X121.339 Y128.553 E1.11878
G1 X120.452 Y128.553 E0.07709
G1 X111.346 Y119.447 E1.11878
G1 X110.459 Y119.447 E0.07709
G1 X119.564 Y128.553 E1.11878
G1 X118.677 Y128.553 E0.07709
G1 X109.571 Y119.447 E1.11878
G1 X108.684 Y119.447 E0.07709
G1 X117.790 Y128.553 E1.11878
G1 X116.902 Y128.553 E0.07709
G1 X107.797 Y119.447 E1.11878
G1 X106.909 Y119.447 E0.07709
G1 X116.015 Y128.553 E1.11878
G1 X115.128 Y128.553 E0.07709
G1 X106.022 Y119.447 E1.11878
G1 X105.135 Y119.447 E0.07709
G1 X114.241 Y128.553 E1.11878
G1 X113.353 Y128.553 E0.07709
G1 X104.248 Y119.447 E1.11878
G1 X103.360 Y119.447 E0.07709
G1 X112.466 Y128.553 E1.11878
G1 X111.579 Y128.553 E0.07709
G1 X102.473 Y119.447 E1.11878
G1 X101.586 Y119.447 E0.07709
G1 X110.691 Y128.553 E1.11878
G1 X109.804 Y128.553 E0.07709
G1 X100.698 Y119.447 E1.11878
G1 X99.811 Y119.447 E0.07709
G1 X108.917 Y128.553 E1.11878
G1 X108.030 Y128.553 E0.07709
G1 X92.113 Y112.637 E1.95557
G1 X92.015 Y113.425 E0.06905
G1 X107.142 Y128.553 E1.85867
G1 X106.255 Y128.553 E0.07709
G1 X91.916 Y114.214 E1.76176
G1 X91.818 Y115.003 E0.06905
G1 X105.368 Y128.553 E1.66486
G1 X104.480 Y128.553 E0.07709
G1 X91.719 Y115.791 E1.56795
G1 X91.620 Y116.580 E0.06905
G1 X103.593 Y128.553 E1.47105
G1 X102.706 Y128.553 E0.07709
G1 X91.522 Y117.369 E1.37415
G1 X91.423 Y118.157 E0.06905
G1 X101.819 Y128.553 E1.27724
G1 X100.931 Y128.553 E0.07709
G1 X91.325 Y118.946 E1.18034
G1 X90.938 Y119.447 F5100.000
G1 X100.044 Y128.553 E1.11878 F1080.000
G1 X99.157 Y128.553 E0.07709
G1 X90.051 Y119.447 E1.11878
G1 X89.164 Y119.447 E0.07709
G1 X98.269 Y128.553 E1.11878
G1 X97.382 Y128.553 E0.07709
G1 X88.277 Y119.447 E1.11878
G1 X87.389 Y119.447 E0.07709
G1 X96.495 Y128.553 E1.11878
G1 X95.608 Y128.553 E0.07709
G1 X86.502 Y119.447 E1.11878
G1 X85.615 Y119.447 E0.07709
G1 X94.720 Y128.553 E1.11878
G1 X93.833 Y128.553 E0.07709
G1 X84.727 Y119.447 E1.11878
G1 X83.840 Y119.447 E0.07709
G1 X92.946 Y128.553 E1.11878
G1 X92.059 Y128.553 E0.07709
G1 X82.953 Y119.447 E1.11878
G1 X82.066 Y119.447 E0.07709
G1 X91.171 Y128.553 E1.11878
G1 X90.284 Y128.553 E0.07709
G1 X81.178 Y119.447 E1.11878
G1 X80.291 Y119.447 E0.07709
G1 X89.397 Y128.553 E1.11878
G1 X88.509 Y128.553 E0.07709
G1 X79.404 Y119.447 E1.11878
G1 X78.516 Y119.447 E0.07709
G1 X87.622 Y128.553 E1.11878
G1 X86.735 Y128.553 E0.07709
G1 X77.629 Y119.447 E1.11878
G1 X76.742 Y119.447 E0.07709
G1 X85.848 Y128.553 E1.11878
G1 X84.960 Y128.553 E0.07709
G1 X75.855 Y119.447 E1.11878
G1 X74.967 Y119.447 E0.07709
G1 X84.073 Y128.553 E1.11878
G1 X83.186 Y128.553 E0.07709
G1 X74.080 Y119.447 E1.11878
G1 X73.193 Y119.447 E0.07709
G1 X82.298 Y128.553 E1.11878
G1 X81.411 Y128.553 E0.07709
G1 X72.305 Y119.447 E1.11878
G1 X71.418 Y119.447 E0.07709
G1 X80.524 Y128.553 E1.11878
G1 X79.637 Y128.553 E0.07709
G1 X70.531 Y119.447 E1.11878
G1 X69.644 Y119.447 E0.07709
G1 X78.749 Y128.553 E1.11878
G1 X77.862 Y128.553 E0.07709
G1 X68.756 Y119.447 E1.11878
G1 X67.869 Y119.447 E0.07709
G1 X76.975 Y128.553 E1.11878
G1 X76.087 Y128.553 E0.07709
G1 X66.982 Y119.447 E1.11878
G1 X66.094 Y119.447 E0.07709
G1 X75.200 Y128.553 E1.11878
G1 X74.313 Y128.553 E0.07709
G1 X65.207 Y119.447 E1.11878
G1 X64.320 Y119.447 E0.07709
G1 X73.426 Y128.553 E1.11878
G1 X72.538 Y128.553 E0.07709
G1 X63.433 Y119.447 E1.11878
G1 X62.545 Y119.447 E0.07709
G1 X71.651 Y128.553 E1.11878
G1 X70.764 Y128.553 E0.07709
G1 X61.658 Y119.447 E1.11878
G1 X60.771 Y119.447 E0.07709
G1 X69.876 Y128.553 E1.11878
G1 X68.989 Y128.553 E0.07709
G1 X59.883 Y119.447 E1.11878
G1 X58.996 Y119.447 E0.07709
G1 X68.102 Y128.553 E1.11878
G1 X67.215 Y128.553 E0.07709
G1 X58.109 Y119.447 E1.11878
G1 X57.222 Y119.447 E0.07709
G1 X66.327 Y128.553 E1.11878
G1 X65.440 Y128.553 E0.07709
G1 X56.334 Y119.447 E1.11878
G1 X55.447 Y119.447 E0.07709
G1 X64.553 Y128.553 E1.11878
G1 X63.665 Y128.553 E0.07709
G1 X54.560 Y119.447 E1.11878
G1 X53.672 Y119.447 E0.07709
G1 X62.778 Y128.553 E1.11878
G1 X61.891 Y128.553 E0.07709
G1 X52.785 Y119.447 E1.11878
G1 X51.898 Y119.447 E0.07709
G1 X61.004 Y128.553 E1.11878
G1 X60.116 Y128.553 E0.07709
G1 X51.011 Y119.447 E1.11878
G1 X50.123 Y119.447 E0.07709
G1 X59.229 Y128.553 E1.11878
G1 X58.342 Y128.553 E0.07709
G1 X49.236 Y119.447 E1.11878
G1 X48.349 Y119.447 E0.07709
G1 X57.454 Y128.553 E1.11878
G1 X56.567 Y128.553 E0.07709
G1 X47.462 Y119.447 E1.11878
G1 X46.574 Y119.447 E0.07709
G1 X55.680 Y128.553 E1.11878
G1 X54.793 Y128.553 E0.07709
G1 X45.687 Y119.447 E1.11878
G1 X44.800 Y119.447 E0.07709
G1 X53.905 Y128.553 E1.11878
G1 X53.018 Y128.553 E0.07709
G1 X38.001 Y113.536 E1.84509
G1 X37.902 Y114.324 E0.06905
G1 X52.131 Y128.553 E1.74819
G1 X51.243 Y128.553 E0.07709
G1 X37.804 Y115.113 E1.65129
G1 X37.705 Y115.902 E0.06905
G1 X50.356 Y128.553 E1.55438
G1 X49.469 Y128.553 E0.07709
G1 X37.607 Y116.690 E1.45748
G1 X37.508 Y117.479 E0.06905
G1 X48.582 Y128.553 E1.36057
G1 X47.694 Y128.553 E0.07709
G1 X37.409 Y118.268 E1.26367
G1 X37.311 Y119.057 E0.06905
G1 X46.807 Y128.553 E1.16677
G1 X45.920 Y128.553 E0.07709
G1 X36.814 Y119.447 E1.11878
G1 X35.927 Y119.447 E0.07709
G1 X45.033 Y128.553 E1.11878
G1 X44.145 Y128.553 E0.07709
G1 X35.040 Y119.447 E1.11878
G1 X34.152 Y119.447 E0.07709
G1 X43.258 Y128.553 E1.11878
G1 X42.371 Y128.553 E0.07709
G1 X33.265 Y119.447 E1.11878
G1 X32.378 Y119.447 E0.07709
G1 X41.483 Y128.553 E1.11878
G1 X40.596 Y128.553 E0.07709
G1 X31.490 Y119.447 E1.11878
G1 X30.603 Y119.447 E0.07709
G1 X39.709 Y128.553 E1.11878
G1 X38.822 Y128.553 E0.07709
G1 X29.716 Y119.447 E1.11878
G1 X28.829 Y119.447 E0.07709
G1 X37.934 Y128.553 E1.11878
G1 X37.047 Y128.553 E0.07709
G1 X27.941 Y119.447 E1.11878
G1 X27.054 Y119.447 E0.07709
G1 X36.160 Y128.553 E1.11878
G1 X35.272 Y128.553 E0.07709
G1 X26.167 Y119.447 E1.11878
G1 X25.279 Y119.447 E0.07709
G1 X34.385 Y128.553 E1.11878
G1 X33.498 Y128.553 E0.07709
G1 X24.392 Y119.447 E1.11878
G1 X23.505 Y119.447 E0.07709
G1 X32.611 Y128.553 E1.11878
G1 X31.723 Y128.553 E0.07709
G1 X22.618 Y119.447 E1.11878
G1 X21.730 Y119.447 E0.07709
G1 X30.836 Y128.553 E1.11878
G1 X29.949 Y128.553 E0.07709
G1 X20.843 Y119.447 E1.11878
G1 X19.956 Y119.447 E0.07709
G1 X29.061 Y128.553 E1.11878
G1 X28.174 Y128.553 E0.07709
G1 X19.068 Y119.447 E1.11878
G1 X18.181 Y119.447 E0.07709
G1 X27.287 Y128.553 E1.11878
G1 X26.400 Y128.553 E0.07709
G1 X17.294 Y119.447 E1.11878
G1 X16.407 Y119.447 E0.07709
G1 X25.512 Y128.553 E1.11878
G1 X24.625 Y128.553 E0.07709
G1 X15.519 Y119.447 E1.11878
G1 X15.447 Y120.262 E0.07109
G1 X23.738 Y128.553 E1.01863
G1 X22.850 Y128.553 E0.07709
G1 X15.447 Y121.150 E0.90961
G1 X15.447 Y122.037 E0.07709
G1 X21.963 Y128.553 E0.80059
G1 X21.076 Y128.553 E0.07709
