; generated by Slic3r 1.1.6 on 2014-08-01 at 14:09:14

; perimeters extrusion width = 0.35mm
; infill extrusion width = 0.67mm
; solid infill extrusion width = 0.59mm
; top infill extrusion width = 0.59mm
; support material extrusion width = 0.35mm

G21 ; set units to millimeters
M190 S60 ; wait for bed temperature to be reached
M104 S200 ; set temperature
G28 X0 Y0
G91
G1 Z10 F200
G1 X50 Y20 F6000
G90
G92 Z100
G30
G92 Z5
G28 X0 Y0
G29
G1 E10 F300
M109 S200 ; wait for temperature to be reached
G90 ; use absolute coordinates
M83 ; use relative distances for extrusion
M106 S255
G1 F1800.000 E-1.00000
G1 Z0.350 F5100.000
G1 X64.702 Y74.753 F5100.000
G1 E1.00000 F1800.000
G1 X66.455 Y73.274 E0.20854 F1080.000
G1 X67.923 Y72.642 E0.14538
G1 X95.919 Y64.439 E2.65264
G1 X97.793 Y64.171 E0.17217
G1 X100.923 Y64.177 E0.28454
G1 X102.653 Y64.410 E0.15878
G1 X105.019 Y65.141 E0.22514
G1 X122.316 Y72.964 E1.72625
G1 X124.211 Y74.256 E0.20854
G1 X125.551 Y76.117 E0.20854
G1 X126.212 Y79.000 E0.26892
G1 X126.212 Y129.000 E4.54648
G1 X125.815 Y131.259 E0.20854
G1 X124.671 Y133.247 E0.20854
G1 X122.319 Y135.035 E0.26867
G1 X104.573 Y143.053 E1.77072
G1 X103.610 Y143.411 E0.09337
G1 X101.298 Y143.826 E0.21360
G1 X98.167 Y143.825 E0.28474
G1 X96.330 Y143.565 E0.16868
G1 X67.948 Y135.365 E2.68635
G1 X65.888 Y134.356 E0.20854
G1 X64.295 Y132.706 E0.20854
G1 X63.361 Y130.611 E0.20854
G1 X63.162 Y129.000 E0.14764
G1 X63.162 Y79.000 E4.54648
G1 X63.559 Y76.741 E0.20854
G1 X64.676 Y74.799 E0.20377
G1 F1800.000 E-1.00000
G1 X118.612 Y128.025 F5100.000
G1 E1.00000 F1800.000
G1 X70.761 Y128.025 E4.35102 F720.000
G1 X70.761 Y79.975 E4.36919
G1 X118.612 Y79.975 E4.35102
G1 X118.612 Y127.973 E4.36441
G1 X119.237 Y128.650 F5100.000
G1 X70.136 Y128.650 E4.46466 F504.000
G1 X70.136 Y79.350 E4.48283
G1 X119.237 Y79.350 E4.46466
G1 X119.237 Y128.598 E4.47805
G1 X118.934 Y128.475 F5100.000
G1 X71.234 Y127.592 F5100.000
G1 X71.194 Y127.552 E0.00514 F1080.000
G1 X71.194 Y126.664 E0.08071
G1 X72.122 Y127.592 E0.11929
G1 X73.010 Y127.592 E0.08071
G1 X71.194 Y125.777 E0.23343
G1 X71.194 Y124.889 E0.08071
G1 X73.897 Y127.592 E0.34757
G1 X74.785 Y127.592 E0.08071
G1 X71.194 Y124.002 E0.46172
G1 X71.194 Y123.114 E0.08071
G1 X75.673 Y127.592 E0.57586
G1 X76.560 Y127.592 E0.08071
G1 X71.194 Y122.226 E0.69000
G1 X71.194 Y121.339 E0.08071
G1 X77.448 Y127.592 E0.80415
G1 X78.335 Y127.592 E0.08071
G1 X71.194 Y120.451 E0.91829
G1 X71.194 Y119.563 E0.08071
G1 X79.223 Y127.592 E1.03243
G1 X80.111 Y127.592 E0.08071
G1 X71.194 Y118.676 E1.14658
G1 X71.194 Y117.788 E0.08071
G1 X80.998 Y127.592 E1.26072
G1 X81.886 Y127.592 E0.08071
G1 X71.194 Y116.901 E1.37486
G1 X71.194 Y116.013 E0.08071
G1 X82.774 Y127.592 E1.48901
G1 X83.661 Y127.592 E0.08071
G1 X71.194 Y115.125 E1.60315
G1 X71.194 Y114.238 E0.08071
G1 X84.549 Y127.592 E1.71729
G1 X85.436 Y127.592 E0.08071
G1 X71.194 Y113.350 E1.83144
G1 X71.194 Y112.462 E0.08071
G1 X86.324 Y127.592 E1.94558
G1 X87.212 Y127.592 E0.08071
G1 X71.194 Y111.575 E2.05972
G1 X71.194 Y110.687 E0.08071
G1 X88.099 Y127.592 E2.17387
G1 X88.987 Y127.592 E0.08071
G1 X71.194 Y109.800 E2.28801
G1 X71.194 Y108.912 E0.08071
G1 X89.875 Y127.592 E2.40216
G1 X90.762 Y127.592 E0.08071
G1 X71.194 Y108.024 E2.51630
G1 X71.194 Y107.137 E0.08071
G1 X91.650 Y127.592 E2.63044
G1 X92.537 Y127.592 E0.08071
G1 X71.194 Y106.249 E2.74459
G1 X71.194 Y105.361 E0.08071
G1 X93.425 Y127.592 E2.85873
G1 X94.313 Y127.592 E0.08071
G1 X71.194 Y104.474 E2.97287
G1 X71.194 Y103.586 E0.08071
G1 X95.200 Y127.592 E3.08702
G1 X96.088 Y127.592 E0.08071
G1 X71.194 Y102.699 E3.20116
G1 X71.194 Y101.811 E0.08071
G1 X96.976 Y127.592 E3.31530
G1 X97.863 Y127.592 E0.08071
G1 X71.194 Y100.923 E3.42945
G1 X71.194 Y100.036 E0.08071
G1 X98.751 Y127.592 E3.54359
G1 X99.638 Y127.592 E0.08071
G1 X71.194 Y99.148 E3.65773
G1 X71.194 Y98.260 E0.08071
G1 X100.526 Y127.592 E3.77188
G1 X101.414 Y127.592 E0.08071
G1 X71.194 Y97.373 E3.88602
G1 X71.194 Y96.485 E0.08071
G1 X102.301 Y127.592 E4.00016
G1 X103.189 Y127.592 E0.08071
G1 X71.194 Y95.598 E4.11431
G1 X71.194 Y94.710 E0.08071
G1 X104.077 Y127.592 E4.22845
G1 X104.964 Y127.592 E0.08071
G1 X71.194 Y93.822 E4.34259
G1 X71.194 Y92.935 E0.08071
G1 X105.852 Y127.592 E4.45674
G1 X106.739 Y127.592 E0.08071
G1 X71.194 Y92.047 E4.57088
G1 X71.194 Y91.159 E0.08071
G1 X107.627 Y127.592 E4.68502
G1 X108.515 Y127.592 E0.08071
G1 X71.194 Y90.272 E4.79917
G1 X71.194 Y89.384 E0.08071
G1 X109.402 Y127.592 E4.91331
G1 X110.290 Y127.592 E0.08071
G1 X71.194 Y88.496 E5.02745
G1 X71.194 Y87.609 E0.08071
G1 X111.178 Y127.592 E5.14160
G1 X112.065 Y127.592 E0.08071
G1 X71.194 Y86.721 E5.25574
G1 X71.194 Y85.834 E0.08071
G1 X112.953 Y127.592 E5.36988
G1 X113.841 Y127.592 E0.08071
G1 X71.194 Y84.946 E5.48403
G1 X71.194 Y84.058 E0.08071
G1 X114.728 Y127.592 E5.59817
G1 X115.616 Y127.592 E0.08071
G1 X71.194 Y83.171 E5.71231
G1 X71.194 Y82.283 E0.08071
G1 X116.503 Y127.592 E5.82646
G1 X117.391 Y127.592 E0.08071
G1 X71.194 Y81.395 E5.94060
G1 X71.194 Y80.508 E0.08071
G1 X118.179 Y127.492 E6.04190
G1 X118.179 Y126.605 E0.08071
G1 X71.982 Y80.408 E5.94060
G1 X72.870 Y80.408 E0.08071
G1 X118.179 Y125.717 E5.82646
G1 X118.179 Y124.829 E0.08071
G1 X73.757 Y80.408 E5.71231
G1 X74.645 Y80.408 E0.08071
G1 X118.179 Y123.942 E5.59817
G1 X118.179 Y123.054 E0.08071
G1 X75.533 Y80.408 E5.48403
G1 X76.420 Y80.408 E0.08071
G1 X118.179 Y122.166 E5.36988
G1 X118.179 Y121.279 E0.08071
G1 X77.308 Y80.408 E5.25574
G1 X78.196 Y80.408 E0.08071
G1 X118.179 Y120.391 E5.14160
G1 X118.179 Y119.504 E0.08071
G1 X79.083 Y80.408 E5.02745
G1 X79.971 Y80.408 E0.08071
G1 X118.179 Y118.616 E4.91331
G1 X118.179 Y117.728 E0.08071
G1 X80.858 Y80.408 E4.79917
G1 X81.746 Y80.408 E0.08071
G1 X118.179 Y116.841 E4.68502
G1 X118.179 Y115.953 E0.08071
G1 X82.634 Y80.408 E4.57088
G1 X83.521 Y80.408 E0.08071
G1 X118.179 Y115.065 E4.45674
G1 X118.179 Y114.178 E0.08071
G1 X84.409 Y80.408 E4.34259
G1 X85.297 Y80.408 E0.08071
G1 X118.179 Y113.290 E4.22845
G1 X118.179 Y112.403 E0.08071
G1 X86.184 Y80.408 E4.11431
G1 X87.072 Y80.408 E0.08071
G1 X118.179 Y111.515 E4.00016
G1 X118.179 Y110.627 E0.08071
G1 X87.959 Y80.408 E3.88602
G1 X88.847 Y80.408 E0.08071
G1 X118.179 Y109.740 E3.77188
G1 X118.179 Y108.852 E0.08071
G1 X89.735 Y80.408 E3.65773
G1 X90.622 Y80.408 E0.08071
G1 X118.179 Y107.964 E3.54359
G1 X118.179 Y107.077 E0.08071
G1 X91.510 Y80.408 E3.42945
G1 X92.398 Y80.408 E0.08071
G1 X118.179 Y106.189 E3.31530
G1 X118.179 Y105.301 E0.08071
G1 X93.285 Y80.408 E3.20116
G1 X94.173 Y80.408 E0.08071
G1 X118.179 Y104.414 E3.08702
G1 X118.179 Y103.526 E0.08071
G1 X95.060 Y80.408 E2.97287
G1 X95.948 Y80.408 E0.08071
G1 X118.179 Y102.639 E2.85873
G1 X118.179 Y101.751 E0.08071
G1 X96.836 Y80.408 E2.74459
G1 X97.723 Y80.408 E0.08071
G1 X118.179 Y100.863 E2.63044
G1 X118.179 Y99.976 E0.08071
G1 X98.611 Y80.408 E2.51630
G1 X99.499 Y80.408 E0.08071
G1 X118.179 Y99.088 E2.40216
G1 X118.179 Y98.200 E0.08071
G1 X100.386 Y80.408 E2.28801
G1 X101.274 Y80.408 E0.08071
G1 X118.179 Y97.313 E2.17387
G1 X118.179 Y96.425 E0.08071
G1 X102.161 Y80.408 E2.05973
G1 X103.049 Y80.408 E0.08071
G1 X118.179 Y95.538 E1.94558
G1 X118.179 Y94.650 E0.08071
G1 X103.937 Y80.408 E1.83144
G1 X104.824 Y80.408 E0.08071
G1 X118.179 Y93.762 E1.71730
G1 X118.179 Y92.875 E0.08071
G1 X105.712 Y80.408 E1.60315
G1 X106.600 Y80.408 E0.08071
G1 X118.179 Y91.987 E1.48901
G1 X118.179 Y91.099 E0.08071
G1 X107.487 Y80.408 E1.37486
G1 X108.375 Y80.408 E0.08071
G1 X118.179 Y90.212 E1.26072
G1 X118.179 Y89.324 E0.08071
G1 X109.262 Y80.408 E1.14658
G1 X110.150 Y80.408 E0.08071
G1 X118.179 Y88.437 E1.03243
G1 X118.179 Y87.549 E0.08071
G1 X111.038 Y80.408 E0.91829
G1 X111.925 Y80.408 E0.08071
G1 X118.179 Y86.661 E0.80415
G1 X118.179 Y85.774 E0.08071
G1 X112.813 Y80.408 E0.69000
G1 X113.701 Y80.408 E0.08071
G1 X118.179 Y84.886 E0.57586
G1 X118.179 Y83.998 E0.08071
G1 X114.588 Y80.408 E0.46172
G1 X115.476 Y80.408 E0.08071
G1 X118.179 Y83.111 E0.34757
G1 X118.179 Y82.223 E0.08071
G1 X116.363 Y80.408 E0.23343
G1 X117.251 Y80.408 E0.08071
G1 X118.179 Y81.336 E0.11929
G1 X118.179 Y80.448 E0.08071
G1 X118.139 Y80.408 E0.00514
G1 F1800.000 E-1.00000
G1 X102.238 Y77.528 F5100.000
G1 E1.00000 F1800.000
G1 X101.753 Y78.495 E0.05512 F1080.000
G1 X100.970 Y78.495 E0.03988
G1 X102.000 Y76.440 E0.11706
G1 X101.762 Y75.353 E0.05669
G1 X100.187 Y78.495 E0.17900
G1 X99.404 Y78.495 E0.03988
G1 X101.549 Y74.215 E0.24382
G1 X100.508 Y73.168 E0.07520
G1 X97.838 Y78.495 E0.30347
G1 X98.621 Y78.495 E0.03988
G1 X101.549 Y72.653 E0.33282
G1 X100.770 Y72.645 E0.03968
G1 X101.549 Y71.091 E0.08856
G1 X100.911 Y70.802 E0.03568
G1 X100.214 Y72.193 E0.07926
G1 X99.486 Y72.082 E0.03748
G1 X100.125 Y70.808 E0.07257
G1 X99.341 Y70.809 E0.03990
G1 X97.352 Y74.778 E0.22606
G1 X96.623 Y74.671 E0.03755
G1 X98.561 Y70.803 E0.22035
G1 X97.782 Y70.796 E0.03971
G1 X96.259 Y73.835 E0.17312
G1 F1800.000 E-1.00000
G1 X97.378 Y76.289 F5100.000
G1 E1.00000 F1800.000
G1 X98.958 Y73.137 E0.17955 F1080.000
G1 X99.787 Y73.044 E0.04249
G1 X97.397 Y77.814 E0.27169
G1 F1800.000 E-1.00000
G1 X103.086 Y74.273 F5100.000
G1 E1.00000 F1800.000
G1 X102.900 Y74.645 E0.02118 F1080.000
G1 X102.157 Y74.565 E0.03806
G1 X103.076 Y72.732 E0.10443
G1 X102.157 Y73.003 E0.04878
G1 X102.779 Y71.761 E0.07073
G1 X102.157 Y71.441 E0.03565
G1 X102.289 Y71.177 E0.01501
G1 F1800.000 E-1.00000
G1 X97.280 Y129.600 F5100.000
G1 E1.00000 F1800.000
G1 X97.328 Y129.505 E0.00541 F1080.000
G1 X98.111 Y129.505 E0.03988
G1 X97.266 Y131.190 E0.09600
G1 X97.503 Y132.279 F5100.000
G1 X98.894 Y129.505 E0.15802 F1080.000
G1 X99.677 Y129.505 E0.03988
G1 X96.436 Y135.971 E0.36838
G1 X96.986 Y136.436 E0.03667
G1 X100.460 Y129.505 E0.39483
G1 X101.243 Y129.505 E0.03988
G1 X98.603 Y134.771 E0.30002
G1 X99.305 Y134.933 E0.03668
G1 X101.549 Y130.456 E0.25510
G1 X101.549 Y132.018 E0.07956
G1 X100.092 Y134.925 E0.16564
G1 X100.540 Y135.595 F5100.000
G1 X100.118 Y136.436 E0.04790 F1080.000
G1 X100.901 Y136.436 E0.03988
G1 X101.525 Y135.191 E0.07091
G1 X100.984 Y134.709 F5100.000
G1 X101.542 Y133.595 E0.06347 F1080.000
G1 X102.132 Y133.979 F5100.000
G1 X102.476 Y133.293 E0.03904 F1080.000
G1 X103.086 Y133.638 E0.03569
G1 X102.132 Y135.541 E0.10841
G1 X102.263 Y136.843 E0.06666
G1 X103.081 Y135.211 E0.09301
G1 F1800.000 E-1.00000
G1 X101.380 Y137.043 F5100.000
G1 E1.00000 F1800.000
G1 X101.300 Y137.201 E0.00902 F1080.000
G1 X100.597 Y137.043 E0.03673
G1 X100.521 Y137.195 E0.00865
G1 X99.814 Y137.043 E0.03682
G1 X99.741 Y137.188 E0.00828
G1 X99.031 Y137.043 E0.03692
G1 X98.955 Y137.194 E0.00859
G1 X98.248 Y137.043 E0.03684
G1 X98.169 Y137.200 E0.00896
G1 X99.335 Y136.436 F5100.000
G1 X99.590 Y135.927 E0.02899 F1080.000
G1 X98.926 Y135.689 E0.03591
G1 X98.552 Y136.436 E0.04252
G1 X97.769 Y136.436 E0.03988
G1 X98.426 Y135.125 E0.07469
G1 X96.259 Y134.763 F5100.000
G1 X97.005 Y133.274 E0.08483 F1080.000
G1 F1800.000 E-1.00000
G1 X97.029 Y130.101 F5100.000
G1 E1.00000 F1800.000
G1 X97.072 Y130.016 E0.00490 F1080.000
M140 S50 ; set bed temperature
G1 F1800.000 E-1.00000
G1 Z0.500 F5100.000
G1 X119.062 Y128.475 F5100.000
G1 E1.00000 F1800.000
G1 X70.493 Y128.475 E1.06010 F2400.000
G1 X70.493 Y79.525 E1.06843
G1 X119.062 Y79.525 E1.06010
G1 X119.062 Y128.423 E1.06728
G1 X119.412 Y128.825 F5100.000
G1 X70.143 Y128.825 E1.07538 F1680.000
G1 X70.143 Y79.175 E1.08371
G1 X119.412 Y79.175 E1.07538
G1 X119.412 Y128.773 E1.08256
G1 X119.109 Y128.650 F5100.000
G1 X118.762 Y128.136 F5100.000
G1 X118.722 Y128.176 E0.00199 F3600.000
G1 X117.920 Y128.176 E0.02815
G1 X118.762 Y127.334 E0.04179
G1 X118.762 Y126.532 E0.02815
G1 X117.118 Y128.176 E0.08160
G1 X116.316 Y128.176 E0.02815
G1 X118.762 Y125.730 E0.12141
G1 X118.762 Y124.928 E0.02815
G1 X115.514 Y128.176 E0.16122
G1 X114.712 Y128.176 E0.02815
G1 X118.762 Y124.126 E0.20103
G1 X118.762 Y123.324 E0.02815
G1 X113.910 Y128.176 E0.24084
G1 X113.108 Y128.176 E0.02815
G1 X118.762 Y122.522 E0.28065
G1 X118.762 Y121.720 E0.02815
G1 X112.306 Y128.176 E0.32046
G1 X111.504 Y128.176 E0.02815
G1 X118.762 Y120.918 E0.36027
G1 X118.762 Y120.116 E0.02815
G1 X110.702 Y128.176 E0.40008
G1 X109.900 Y128.176 E0.02815
G1 X118.762 Y119.314 E0.43989
G1 X118.762 Y118.512 E0.02815
G1 X109.098 Y128.176 E0.47969
G1 X108.296 Y128.176 E0.02815
G1 X118.762 Y117.710 E0.51950
G1 X118.762 Y116.908 E0.02815
G1 X107.494 Y128.176 E0.55931
G1 X106.692 Y128.176 E0.02815
G1 X118.762 Y116.106 E0.59912
G1 X118.762 Y115.304 E0.02815
G1 X105.890 Y128.176 E0.63893
G1 X105.088 Y128.176 E0.02815
G1 X118.762 Y114.502 E0.67874
G1 X118.762 Y113.700 E0.02815
G1 X104.286 Y128.176 E0.71855
G1 X103.484 Y128.176 E0.02815
G1 X118.762 Y112.897 E0.75836
G1 X118.762 Y112.095 E0.02815
G1 X102.682 Y128.176 E0.79817
G1 X101.880 Y128.176 E0.02815
G1 X118.762 Y111.293 E0.83798
G1 X118.762 Y110.491 E0.02815
G1 X101.078 Y128.176 E0.87779
G1 X100.276 Y128.176 E0.02815
G1 X118.762 Y109.689 E0.91759
G1 X118.762 Y108.887 E0.02815
G1 X99.474 Y128.176 E0.95740
G1 X98.672 Y128.176 E0.02815
G1 X118.762 Y108.085 E0.99721
G1 X118.762 Y107.283 E0.02815
G1 X97.870 Y128.176 E1.03702
G1 X97.068 Y128.176 E0.02815
G1 X118.762 Y106.481 E1.07683
G1 X118.762 Y105.679 E0.02815
G1 X96.266 Y128.176 E1.11664
G1 X95.464 Y128.176 E0.02815
G1 X118.762 Y104.877 E1.15645
G1 X118.762 Y104.075 E0.02815
G1 X94.662 Y128.176 E1.19626
G1 X93.860 Y128.176 E0.02815
G1 X118.762 Y103.273 E1.23607
G1 X118.762 Y102.471 E0.02815
G1 X93.058 Y128.176 E1.27588
G1 X92.256 Y128.176 E0.02815
G1 X118.762 Y101.669 E1.31569
G1 X118.762 Y100.867 E0.02815
G1 X91.454 Y128.176 E1.35549
G1 X90.652 Y128.176 E0.02815
G1 X118.762 Y100.065 E1.39530
G1 X118.762 Y99.263 E0.02815
G1 X89.850 Y128.176 E1.43511
G1 X89.048 Y128.176 E0.02815
G1 X118.762 Y98.461 E1.47492
G1 X118.762 Y97.659 E0.02815
G1 X88.246 Y128.176 E1.51473
G1 X87.444 Y128.176 E0.02815
G1 X118.762 Y96.857 E1.55454
G1 X118.762 Y96.055 E0.02815
G1 X86.642 Y128.176 E1.59435
G1 X85.840 Y128.176 E0.02815
G1 X118.762 Y95.253 E1.63416
G1 X118.762 Y94.451 E0.02815
G1 X85.038 Y128.176 E1.67397
G1 X84.236 Y128.176 E0.02815
G1 X118.762 Y93.649 E1.71378
G1 X118.762 Y92.847 E0.02815
G1 X83.434 Y128.176 E1.75359
G1 X82.632 Y128.176 E0.02815
G1 X118.762 Y92.045 E1.79339
G1 X118.762 Y91.243 E0.02815
G1 X81.830 Y128.176 E1.83320
G1 X81.028 Y128.176 E0.02815
G1 X118.762 Y90.441 E1.87301
G1 X118.762 Y89.639 E0.02815
G1 X80.226 Y128.176 E1.91282
G1 X79.424 Y128.176 E0.02815
G1 X118.762 Y88.837 E1.95263
G1 X118.762 Y88.035 E0.02815
G1 X78.622 Y128.176 E1.99244
G1 X77.820 Y128.176 E0.02815
G1 X118.762 Y87.233 E2.03225
G1 X118.762 Y86.431 E0.02815
G1 X77.018 Y128.176 E2.07206
G1 X76.216 Y128.176 E0.02815
G1 X118.762 Y85.629 E2.11187
G1 X118.762 Y84.827 E0.02815
G1 X75.414 Y128.176 E2.15168
G1 X74.612 Y128.176 E0.02815
G1 X118.762 Y84.025 E2.19149
G1 X118.762 Y83.223 E0.02815
G1 X73.810 Y128.176 E2.23129
G1 X73.008 Y128.176 E0.02815
G1 X118.762 Y82.421 E2.27110
G1 X118.762 Y81.619 E0.02815
G1 X72.206 Y128.176 E2.31091
G1 X71.404 Y128.176 E0.02815
G1 X118.762 Y80.817 E2.35072
G1 X118.762 Y80.015 E0.02815
G1 X70.792 Y127.985 E2.38106
G1 X70.792 Y127.183 E0.02815
G1 X118.151 Y79.824 E2.35072
G1 X117.349 Y79.824 E0.02815
G1 X70.792 Y126.381 E2.31091
G1 X70.792 Y125.579 E0.02815
G1 X116.547 Y79.824 E2.27110
G1 X115.745 Y79.824 E0.02815
G1 X70.792 Y124.777 E2.23129
G1 X70.792 Y123.975 E0.02815
G1 X114.943 Y79.824 E2.19149
G1 X114.141 Y79.824 E0.02815
G1 X70.792 Y123.173 E2.15168
G1 X70.792 Y122.371 E0.02815
G1 X113.339 Y79.824 E2.11187
G1 X112.537 Y79.824 E0.02815
G1 X70.792 Y121.569 E2.07206
G1 X70.792 Y120.767 E0.02815
G1 X111.735 Y79.824 E2.03225
G1 X110.933 Y79.824 E0.02815
G1 X70.792 Y119.965 E1.99244
G1 X70.792 Y119.163 E0.02815
G1 X110.131 Y79.824 E1.95263
G1 X109.329 Y79.824 E0.02815
G1 X70.792 Y118.361 E1.91282
G1 X70.792 Y117.559 E0.02815
G1 X108.527 Y79.824 E1.87301
G1 X107.725 Y79.824 E0.02815
G1 X70.792 Y116.757 E1.83320
G1 X70.792 Y115.955 E0.02815
G1 X106.923 Y79.824 E1.79339
G1 X106.121 Y79.824 E0.02815
G1 X70.792 Y115.153 E1.75359
G1 X70.792 Y114.351 E0.02815
G1 X105.319 Y79.824 E1.71378
