; generated by Slic3r 1.1.6 on 2014-07-31 at 22:46:04

; perimeters extrusion width = 0.35mm
; infill extrusion width = 0.67mm
; solid infill extrusion width = 0.59mm
; top infill extrusion width = 0.59mm

G21 ; set units to millimeters
M190 S60 ; wait for bed temperature to be reached
M104 S200 ; set temperature
G28 X0 Y0
G91
G1 Z10 F200
G1 X50 Y20 F6000
G90
G92 Z100
G30
G92 Z5
G28 X0 Y0
G29
G1 E10 F300
M109 S200 ; wait for temperature to be reached
G90 ; use absolute coordinates
M83 ; use relative distances for extrusion
M106 S255
G1 F1800.000 E-1.00000
G1 Z0.350 F5100.000
G1 X64.452 Y74.753 F5100.000
G1 E1.00000 F1800.000
G1 X66.205 Y73.274 E0.20854 F1080.000
G1 X68.357 Y72.481 E0.20854
G1 X69.536 Y72.375 E0.10771
G1 X119.337 Y72.375 E4.52831
G1 X121.595 Y72.772 E0.20854
G1 X123.583 Y73.915 E0.20854
G1 X125.063 Y75.668 E0.20854
G1 X125.855 Y77.820 E0.20854
G1 X125.961 Y79.000 E0.10771
G1 X125.961 Y129.000 E4.54648
G1 X125.564 Y131.259 E0.20854
G1 X124.421 Y133.247 E0.20854
G1 X122.668 Y134.726 E0.20854
G1 X120.516 Y135.519 E0.20854
G1 X119.337 Y135.625 E0.10771
G1 X69.536 Y135.625 E4.52831
G1 X67.278 Y135.228 E0.20854
G1 X65.289 Y134.085 E0.20854
G1 X63.810 Y132.332 E0.20854
G1 X63.017 Y130.180 E0.20854
G1 X62.911 Y129.000 E0.10771
G1 X62.911 Y79.000 E4.54648
G1 X63.308 Y76.741 E0.20854
G1 X64.426 Y74.799 E0.20377
G1 F1800.000 E-1.00000
G1 X118.362 Y128.025 F5100.000
G1 E1.00000 F1800.000
G1 X70.511 Y128.025 E4.35102 F720.000
G1 X70.511 Y79.975 E4.36919
G1 X118.362 Y79.975 E4.35102
G1 X118.362 Y127.973 E4.36441
G1 X118.987 Y128.650 F5100.000
G1 X69.886 Y128.650 E4.46466 F504.000
G1 X69.886 Y79.350 E4.48283
G1 X118.987 Y79.350 E4.46466
G1 X118.987 Y128.598 E4.47805
G1 X118.683 Y128.475 F5100.000
G1 X70.984 Y127.592 F5100.000
G1 X70.944 Y127.552 E0.00514 F1080.000
G1 X70.944 Y126.664 E0.08071
G1 X71.872 Y127.592 E0.11929
G1 X72.760 Y127.592 E0.08071
G1 X70.944 Y125.777 E0.23343
G1 X70.944 Y124.889 E0.08071
G1 X73.647 Y127.592 E0.34757
G1 X74.535 Y127.592 E0.08071
G1 X70.944 Y124.002 E0.46172
G1 X70.944 Y123.114 E0.08071
G1 X75.422 Y127.592 E0.57586
G1 X76.310 Y127.592 E0.08071
G1 X70.944 Y122.226 E0.69000
G1 X70.944 Y121.339 E0.08071
G1 X77.198 Y127.592 E0.80415
G1 X78.085 Y127.592 E0.08071
G1 X70.944 Y120.451 E0.91829
G1 X70.944 Y119.563 E0.08071
G1 X78.973 Y127.592 E1.03243
G1 X79.861 Y127.592 E0.08071
G1 X70.944 Y118.676 E1.14658
G1 X70.944 Y117.788 E0.08071
G1 X80.748 Y127.592 E1.26072
G1 X81.636 Y127.592 E0.08071
G1 X70.944 Y116.901 E1.37486
G1 X70.944 Y116.013 E0.08071
G1 X82.523 Y127.592 E1.48901
G1 X83.411 Y127.592 E0.08071
G1 X70.944 Y115.125 E1.60315
G1 X70.944 Y114.238 E0.08071
G1 X84.299 Y127.592 E1.71730
G1 X85.186 Y127.592 E0.08071
G1 X70.944 Y113.350 E1.83144
G1 X70.944 Y112.462 E0.08071
G1 X86.074 Y127.592 E1.94558
G1 X86.962 Y127.592 E0.08071
G1 X70.944 Y111.575 E2.05973
G1 X70.944 Y110.687 E0.08071
G1 X87.849 Y127.592 E2.17387
G1 X88.737 Y127.592 E0.08071
G1 X70.944 Y109.800 E2.28801
G1 X70.944 Y108.912 E0.08071
G1 X89.624 Y127.592 E2.40216
G1 X90.512 Y127.592 E0.08071
G1 X70.944 Y108.024 E2.51630
G1 X70.944 Y107.137 E0.08071
G1 X91.400 Y127.592 E2.63044
G1 X92.287 Y127.592 E0.08071
G1 X70.944 Y106.249 E2.74459
G1 X70.944 Y105.361 E0.08071
G1 X93.175 Y127.592 E2.85873
G1 X94.063 Y127.592 E0.08071
G1 X70.944 Y104.474 E2.97287
G1 X70.944 Y103.586 E0.08071
G1 X94.950 Y127.592 E3.08702
G1 X95.838 Y127.592 E0.08071
G1 X70.944 Y102.699 E3.20116
G1 X70.944 Y101.811 E0.08071
G1 X96.725 Y127.592 E3.31530
G1 X97.613 Y127.592 E0.08071
G1 X70.944 Y100.923 E3.42945
G1 X70.944 Y100.036 E0.08071
G1 X98.501 Y127.592 E3.54359
G1 X99.388 Y127.592 E0.08071
G1 X70.944 Y99.148 E3.65773
G1 X70.944 Y98.260 E0.08071
G1 X100.276 Y127.592 E3.77188
G1 X101.164 Y127.592 E0.08071
G1 X70.944 Y97.373 E3.88602
G1 X70.944 Y96.485 E0.08071
G1 X102.051 Y127.592 E4.00016
G1 X102.939 Y127.592 E0.08071
G1 X70.944 Y95.598 E4.11431
G1 X70.944 Y94.710 E0.08071
G1 X103.826 Y127.592 E4.22845
G1 X104.714 Y127.592 E0.08071
G1 X70.944 Y93.822 E4.34259
G1 X70.944 Y92.935 E0.08071
G1 X105.602 Y127.592 E4.45674
G1 X106.489 Y127.592 E0.08071
G1 X70.944 Y92.047 E4.57088
G1 X70.944 Y91.159 E0.08071
G1 X107.377 Y127.592 E4.68502
G1 X108.265 Y127.592 E0.08071
G1 X70.944 Y90.272 E4.79917
G1 X70.944 Y89.384 E0.08071
G1 X109.152 Y127.592 E4.91331
G1 X110.040 Y127.592 E0.08071
G1 X70.944 Y88.496 E5.02745
G1 X70.944 Y87.609 E0.08071
G1 X110.927 Y127.592 E5.14160
G1 X111.815 Y127.592 E0.08071
G1 X70.944 Y86.721 E5.25574
G1 X70.944 Y85.834 E0.08071
G1 X112.703 Y127.592 E5.36988
G1 X113.590 Y127.592 E0.08071
G1 X70.944 Y84.946 E5.48403
G1 X70.944 Y84.058 E0.08071
G1 X114.478 Y127.592 E5.59817
G1 X115.366 Y127.592 E0.08071
G1 X70.944 Y83.171 E5.71231
G1 X70.944 Y82.283 E0.08071
G1 X116.253 Y127.592 E5.82646
G1 X117.141 Y127.592 E0.08071
G1 X70.944 Y81.395 E5.94060
G1 X70.944 Y80.508 E0.08071
G1 X117.929 Y127.492 E6.04190
G1 X117.929 Y126.605 E0.08071
G1 X71.732 Y80.408 E5.94060
G1 X72.620 Y80.408 E0.08071
G1 X117.929 Y125.717 E5.82646
G1 X117.929 Y124.829 E0.08071
G1 X73.507 Y80.408 E5.71232
G1 X74.395 Y80.408 E0.08071
G1 X117.929 Y123.942 E5.59817
G1 X117.929 Y123.054 E0.08071
G1 X75.282 Y80.408 E5.48403
G1 X76.170 Y80.408 E0.08071
G1 X117.929 Y122.166 E5.36988
G1 X117.929 Y121.279 E0.08071
G1 X77.058 Y80.408 E5.25574
G1 X77.945 Y80.408 E0.08071
G1 X117.929 Y120.391 E5.14160
G1 X117.929 Y119.504 E0.08071
G1 X78.833 Y80.408 E5.02745
G1 X79.721 Y80.408 E0.08071
G1 X117.929 Y118.616 E4.91331
G1 X117.929 Y117.728 E0.08071
G1 X80.608 Y80.408 E4.79917
G1 X81.496 Y80.408 E0.08071
G1 X117.929 Y116.841 E4.68502
G1 X117.929 Y115.953 E0.08071
G1 X82.383 Y80.408 E4.57088
G1 X83.271 Y80.408 E0.08071
G1 X117.929 Y115.065 E4.45674
G1 X117.929 Y114.178 E0.08071
G1 X84.159 Y80.408 E4.34259
G1 X85.046 Y80.408 E0.08071
G1 X117.929 Y113.290 E4.22845
G1 X117.929 Y112.403 E0.08071
G1 X85.934 Y80.408 E4.11431
G1 X86.822 Y80.408 E0.08071
G1 X117.929 Y111.515 E4.00016
G1 X117.929 Y110.627 E0.08071
G1 X87.709 Y80.408 E3.88602
G1 X88.597 Y80.408 E0.08071
G1 X117.929 Y109.740 E3.77188
G1 X117.929 Y108.852 E0.08071
G1 X89.485 Y80.408 E3.65773
G1 X90.372 Y80.408 E0.08071
G1 X117.929 Y107.964 E3.54359
G1 X117.929 Y107.077 E0.08071
G1 X91.260 Y80.408 E3.42945
G1 X92.147 Y80.408 E0.08071
G1 X117.929 Y106.189 E3.31530
G1 X117.929 Y105.301 E0.08071
G1 X93.035 Y80.408 E3.20116
G1 X93.923 Y80.408 E0.08071
G1 X117.929 Y104.414 E3.08702
G1 X117.929 Y103.526 E0.08071
G1 X94.810 Y80.408 E2.97287
G1 X95.698 Y80.408 E0.08071
G1 X117.929 Y102.639 E2.85873
G1 X117.929 Y101.751 E0.08071
G1 X96.586 Y80.408 E2.74459
G1 X97.473 Y80.408 E0.08071
G1 X117.929 Y100.863 E2.63044
G1 X117.929 Y99.976 E0.08071
G1 X98.361 Y80.408 E2.51630
G1 X99.248 Y80.408 E0.08071
G1 X117.929 Y99.088 E2.40216
G1 X117.929 Y98.200 E0.08071
G1 X100.136 Y80.408 E2.28801
G1 X101.024 Y80.408 E0.08071
G1 X117.929 Y97.313 E2.17387
G1 X117.929 Y96.425 E0.08071
G1 X101.911 Y80.408 E2.05973
G1 X102.799 Y80.408 E0.08071
G1 X117.929 Y95.538 E1.94558
G1 X117.929 Y94.650 E0.08071
G1 X103.687 Y80.408 E1.83144
G1 X104.574 Y80.408 E0.08071
G1 X117.929 Y93.762 E1.71730
G1 X117.929 Y92.875 E0.08071
G1 X105.462 Y80.408 E1.60315
G1 X106.349 Y80.408 E0.08071
G1 X117.929 Y91.987 E1.48901
G1 X117.929 Y91.099 E0.08071
G1 X107.237 Y80.408 E1.37487
G1 X108.125 Y80.408 E0.08071
G1 X117.929 Y90.212 E1.26072
G1 X117.929 Y89.324 E0.08071
G1 X109.012 Y80.408 E1.14658
G1 X109.900 Y80.408 E0.08071
G1 X117.929 Y88.437 E1.03243
G1 X117.929 Y87.549 E0.08071
G1 X110.788 Y80.408 E0.91829
G1 X111.675 Y80.408 E0.08071
G1 X117.929 Y86.661 E0.80415
G1 X117.929 Y85.774 E0.08071
G1 X112.563 Y80.408 E0.69000
G1 X113.450 Y80.408 E0.08071
G1 X117.929 Y84.886 E0.57586
G1 X117.929 Y83.998 E0.08071
G1 X114.338 Y80.408 E0.46172
G1 X115.226 Y80.408 E0.08071
G1 X117.929 Y83.111 E0.34757
G1 X117.929 Y82.223 E0.08071
G1 X116.113 Y80.408 E0.23343
G1 X117.001 Y80.408 E0.08071
G1 X117.929 Y81.336 E0.11929
G1 X117.929 Y80.448 E0.08071
G1 X117.889 Y80.408 E0.00514
M140 S50 ; set bed temperature
G1 F1800.000 E-1.00000
G1 Z0.500 F5100.000
G1 X118.630 Y128.475 F5100.000
G1 E1.00000 F1800.000
G1 X70.061 Y128.475 E1.06010 F2400.000
G1 X70.061 Y79.525 E1.06843
G1 X118.630 Y79.525 E1.06010
G1 X118.630 Y128.423 E1.06728
G1 X118.980 Y128.825 F5100.000
G1 X69.711 Y128.825 E1.07538 F1680.000
G1 X69.711 Y79.175 E1.08371
G1 X118.980 Y79.175 E1.07538
G1 X118.980 Y128.773 E1.08256
G1 X118.677 Y128.650 F5100.000
G1 X118.331 Y128.136 F5100.000
G1 X118.291 Y128.176 E0.00199 F3600.000
G1 X117.489 Y128.176 E0.02815
G1 X118.331 Y127.334 E0.04179
G1 X118.331 Y126.532 E0.02815
G1 X116.687 Y128.176 E0.08160
G1 X115.885 Y128.176 E0.02815
G1 X118.331 Y125.730 E0.12141
G1 X118.331 Y124.928 E0.02815
G1 X115.083 Y128.176 E0.16122
G1 X114.281 Y128.176 E0.02815
G1 X118.331 Y124.126 E0.20103
G1 X118.331 Y123.324 E0.02815
G1 X113.479 Y128.176 E0.24084
G1 X112.677 Y128.176 E0.02815
G1 X118.331 Y122.522 E0.28065
G1 X118.331 Y121.720 E0.02815
G1 X111.874 Y128.176 E0.32046
G1 X111.072 Y128.176 E0.02815
G1 X118.331 Y120.918 E0.36027
G1 X118.331 Y120.116 E0.02815
G1 X110.270 Y128.176 E0.40008
G1 X109.468 Y128.176 E0.02815
G1 X118.331 Y119.314 E0.43989
G1 X118.331 Y118.512 E0.02815
G1 X108.666 Y128.176 E0.47969
G1 X107.864 Y128.176 E0.02815
G1 X118.331 Y117.710 E0.51950
G1 X118.331 Y116.908 E0.02815
G1 X107.062 Y128.176 E0.55931
G1 X106.260 Y128.176 E0.02815
G1 X118.331 Y116.106 E0.59912
G1 X118.331 Y115.304 E0.02815
G1 X105.458 Y128.176 E0.63893
G1 X104.656 Y128.176 E0.02815
G1 X118.331 Y114.502 E0.67874
G1 X118.331 Y113.700 E0.02815
G1 X103.854 Y128.176 E0.71855
G1 X103.052 Y128.176 E0.02815
G1 X118.331 Y112.897 E0.75836
G1 X118.331 Y112.095 E0.02815
G1 X102.250 Y128.176 E0.79817
G1 X101.448 Y128.176 E0.02815
G1 X118.331 Y111.293 E0.83798
G1 X118.331 Y110.491 E0.02815
G1 X100.646 Y128.176 E0.87779
G1 X99.844 Y128.176 E0.02815
G1 X118.331 Y109.689 E0.91759
G1 X118.331 Y108.887 E0.02815
G1 X99.042 Y128.176 E0.95740
G1 X98.240 Y128.176 E0.02815
G1 X118.331 Y108.085 E0.99721
G1 X118.331 Y107.283 E0.02815
G1 X97.438 Y128.176 E1.03702
G1 X96.636 Y128.176 E0.02815
G1 X118.331 Y106.481 E1.07683
G1 X118.331 Y105.679 E0.02815
G1 X95.834 Y128.176 E1.11664
G1 X95.032 Y128.176 E0.02815
G1 X118.331 Y104.877 E1.15645
G1 X118.331 Y104.075 E0.02815
G1 X94.230 Y128.176 E1.19626
G1 X93.428 Y128.176 E0.02815
G1 X118.331 Y103.273 E1.23607
G1 X118.331 Y102.471 E0.02815
G1 X92.626 Y128.176 E1.27588
G1 X91.824 Y128.176 E0.02815
G1 X118.331 Y101.669 E1.31569
G1 X118.331 Y100.867 E0.02815
G1 X91.022 Y128.176 E1.35549
G1 X90.220 Y128.176 E0.02815
G1 X118.331 Y100.065 E1.39530
G1 X118.331 Y99.263 E0.02815
G1 X89.418 Y128.176 E1.43511
G1 X88.616 Y128.176 E0.02815
G1 X118.331 Y98.461 E1.47492
G1 X118.331 Y97.659 E0.02815
G1 X87.814 Y128.176 E1.51473
G1 X87.012 Y128.176 E0.02815
G1 X118.331 Y96.857 E1.55454
G1 X118.331 Y96.055 E0.02815
G1 X86.210 Y128.176 E1.59435
G1 X85.408 Y128.176 E0.02815
G1 X118.331 Y95.253 E1.63416
G1 X118.331 Y94.451 E0.02815
G1 X84.606 Y128.176 E1.67397
G1 X83.804 Y128.176 E0.02815
G1 X118.331 Y93.649 E1.71378
G1 X118.331 Y92.847 E0.02815
G1 X83.002 Y128.176 E1.75359
G1 X82.200 Y128.176 E0.02815
G1 X118.331 Y92.045 E1.79339
G1 X118.331 Y91.243 E0.02815
G1 X81.398 Y128.176 E1.83320
G1 X80.596 Y128.176 E0.02815
G1 X118.331 Y90.441 E1.87301
G1 X118.331 Y89.639 E0.02815
G1 X79.794 Y128.176 E1.91282
G1 X78.992 Y128.176 E0.02815
G1 X118.331 Y88.837 E1.95263
G1 X118.331 Y88.035 E0.02815
G1 X78.190 Y128.176 E1.99244
G1 X77.388 Y128.176 E0.02815
G1 X118.331 Y87.233 E2.03225
G1 X118.331 Y86.431 E0.02815
G1 X76.586 Y128.176 E2.07206
G1 X75.784 Y128.176 E0.02815
G1 X118.331 Y85.629 E2.11187
G1 X118.331 Y84.827 E0.02815
G1 X74.982 Y128.176 E2.15168
G1 X74.180 Y128.176 E0.02815
G1 X118.331 Y84.025 E2.19149
G1 X118.331 Y83.223 E0.02815
G1 X73.378 Y128.176 E2.23130
G1 X72.576 Y128.176 E0.02815
G1 X118.331 Y82.421 E2.27110
G1 X118.331 Y81.619 E0.02815
G1 X71.774 Y128.176 E2.31091
G1 X70.972 Y128.176 E0.02815
G1 X118.331 Y80.817 E2.35072
G1 X118.331 Y80.015 E0.02815
G1 X70.361 Y127.985 E2.38106
G1 X70.361 Y127.183 E0.02815
G1 X117.719 Y79.824 E2.35072
G1 X116.917 Y79.824 E0.02815
G1 X70.361 Y126.381 E2.31091
G1 X70.361 Y125.579 E0.02815
G1 X116.115 Y79.824 E2.27110
G1 X115.313 Y79.824 E0.02815
G1 X70.361 Y124.777 E2.23129
G1 X70.361 Y123.975 E0.02815
G1 X114.511 Y79.824 E2.19149
G1 X113.709 Y79.824 E0.02815
G1 X70.361 Y123.173 E2.15168
G1 X70.361 Y122.371 E0.02815
G1 X112.907 Y79.824 E2.11187
G1 X112.105 Y79.824 E0.02815
G1 X70.361 Y121.569 E2.07206
G1 X70.361 Y120.767 E0.02815
G1 X111.303 Y79.824 E2.03225
G1 X110.501 Y79.824 E0.02815
G1 X70.361 Y119.965 E1.99244
G1 X70.361 Y119.163 E0.02815
G1 X109.699 Y79.824 E1.95263
G1 X108.897 Y79.824 E0.02815
G1 X70.361 Y118.361 E1.91282
G1 X70.361 Y117.559 E0.02815
G1 X108.095 Y79.824 E1.87301
G1 X107.293 Y79.824 E0.02815
G1 X70.361 Y116.757 E1.83320
G1 X70.361 Y115.955 E0.02815
G1 X106.491 Y79.824 E1.79339
G1 X105.689 Y79.824 E0.02815
G1 X70.361 Y115.153 E1.75359
G1 X70.361 Y114.351 E0.02815
G1 X104.887 Y79.824 E1.71378
G1 X104.085 Y79.824 E0.02815
G1 X70.361 Y113.549 E1.67397
G1 X70.361 Y112.747 E0.02815
G1 X103.283 Y79.824 E1.63416
G1 X102.481 Y79.824 E0.02815
G1 X70.361 Y111.945 E1.59435
G1 X70.361 Y111.143 E0.02815
G1 X101.679 Y79.824 E1.55454
G1 X100.877 Y79.824 E0.02815
G1 X70.361 Y110.341 E1.51473
G1 X70.361 Y109.539 E0.02815
G1 X100.075 Y79.824 E1.47492
G1 X99.273 Y79.824 E0.02815
G1 X70.361 Y108.737 E1.43511
G1 X70.361 Y107.935 E0.02815
G1 X98.471 Y79.824 E1.39530
G1 X97.669 Y79.824 E0.02815
G1 X70.361 Y107.133 E1.35549
G1 X70.361 Y106.331 E0.02815
G1 X96.867 Y79.824 E1.31569
G1 X96.065 Y79.824 E0.02815
G1 X70.361 Y105.529 E1.27588
G1 X70.361 Y104.727 E0.02815
G1 X95.263 Y79.824 E1.23607
G1 X94.461 Y79.824 E0.02815
G1 X70.361 Y103.925 E1.19626
G1 X70.361 Y103.123 E0.02815
G1 X93.659 Y79.824 E1.15645
G1 X92.857 Y79.824 E0.02815
G1 X70.361 Y102.321 E1.11664
G1 X70.361 Y101.519 E0.02815
G1 X92.055 Y79.824 E1.07683
G1 X91.253 Y79.824 E0.02815
G1 X70.361 Y100.717 E1.03702
G1 X70.361 Y99.915 E0.02815
G1 X90.451 Y79.824 E0.99721
G1 X89.649 Y79.824 E0.02815
G1 X70.361 Y99.113 E0.95740
G1 X70.361 Y98.311 E0.02815
G1 X88.847 Y79.824 E0.91759
G1 X88.045 Y79.824 E0.02815
G1 X70.361 Y97.509 E0.87779
G1 X70.361 Y96.707 E0.02815
G1 X87.243 Y79.824 E0.83798
G1 X86.441 Y79.824 E0.02815
G1 X70.361 Y95.905 E0.79817
G1 X70.361 Y95.103 E0.02815
G1 X85.639 Y79.824 E0.75836
G1 X84.837 Y79.824 E0.02815
G1 X70.361 Y94.300 E0.71855
G1 X70.361 Y93.498 E0.02815
G1 X84.035 Y79.824 E0.67874
G1 X83.233 Y79.824 E0.02815
G1 X70.361 Y92.696 E0.63893
G1 X70.361 Y91.894 E0.02815
G1 X82.431 Y79.824 E0.59912
G1 X81.629 Y79.824 E0.02815
G1 X70.361 Y91.092 E0.55931
G1 X70.361 Y90.290 E0.02815
G1 X80.827 Y79.824 E0.51950
G1 X80.025 Y79.824 E0.02815
G1 X70.361 Y89.488 E0.47969
G1 X70.361 Y88.686 E0.02815
G1 X79.223 Y79.824 E0.43989
G1 X78.421 Y79.824 E0.02815
G1 X70.361 Y87.884 E0.40008
G1 X70.361 Y87.082 E0.02815
G1 X77.619 Y79.824 E0.36027
G1 X76.817 Y79.824 E0.02815
G1 X70.361 Y86.280 E0.32046
G1 X70.361 Y85.478 E0.02815
G1 X76.015 Y79.824 E0.28065
G1 X75.213 Y79.824 E0.02815
G1 X70.361 Y84.676 E0.24084
G1 X70.361 Y83.874 E0.02815
G1 X74.411 Y79.824 E0.20103
G1 X73.609 Y79.824 E0.02815
G1 X70.361 Y83.072 E0.16122
G1 X70.361 Y82.270 E0.02815
G1 X72.807 Y79.824 E0.12141
G1 X72.005 Y79.824 E0.02815
G1 X70.361 Y81.468 E0.08160
G1 X70.361 Y80.666 E0.02815
G1 X71.203 Y79.824 E0.04179
G1 X70.401 Y79.824 E0.02815
G1 X70.361 Y79.864 E0.00199
G1 F1800.000 E-1.00000
G1 Z0.650 F5100.000
G1 X118.521 Y128.475 F5100.000
G1 E1.00000 F1800.000
G1 X70.061 Y128.475 E1.05772 F2400.000
G1 X70.061 Y79.525 E1.06843
G1 X118.521 Y79.525 E1.05772
G1 X118.521 Y128.423 E1.06728
G1 X118.871 Y128.825 F5100.000
G1 X69.711 Y128.825 E1.07300 F1680.000
G1 X69.711 Y79.175 E1.08371
G1 X118.871 Y79.175 E1.07300
G1 X118.871 Y128.773 E1.08256
G1 X118.568 Y128.650 F5100.000
G1 X70.401 Y128.176 F5100.000
G1 X70.361 Y128.136 E0.00199 F3600.000
G1 X70.361 Y127.335 E0.02812
G1 X71.202 Y128.176 E0.04175
G1 X72.003 Y128.176 E0.02812
